X:1
T:Weihnachtslieder
T:Die Könige
T:Peter Cornelius
T:Die Könige / The Kings
T:Weihnachtslieder Op. 8, Nr. 3, 2. Fassung, 1870
T:CPDL - Creative Commons Attribution Non Commercial 3.0
T:CPDL - Creative Commons Attribution Non Commercial 3.0
T:CPDL - Creative Commons Attribution Non Commercial 3.0
T:CPDL - Creative Commons Attribution Non Commercial 3.0
T:CPDL - Creative Commons Attribution Non Commercial 3.0
C:Peter Cornelius
Z:CPDL - Creative Commons Attribution Non Commercial 3.0
%%score 1 { ( 2 4 6 ) | ( 3 5 ) }
L:1/8
Q:1/4=60
M:4/4
K:G
V:1 treble nm="Solo\n"
V:2 treble nm="Klav."
V:4 treble 
V:6 treble 
V:3 bass 
V:5 bass 
V:1
"^Langsam, der begleitende Choral sehr breit\nLento, ben distinto il canto fermo" DBF | %1
w: Drei Kön'- ge|
w: Three kings have|
[M:3/4] AG B,C E>D |[M:4/4] D2 z D GA BA/G/ | Gc G2 z GBc | dB/A/ GF/G/ E B2 A | %5
w: wan- * dern aus Mor- gen-|land, ein Stern- lein führt sie zum|Jor- dan- strand. In Ju- da|fra- gen und for- schen die Drei, wo der|
w: come _ from the east- ern|land; a star hath led them to|Jor- dans‘ strand. And in Ju-|dae- a are ask- ing the tree where the|
 GA B^A/B/ d ^c/B/ =A2 | z A^GA cA BA/=G/ | cG B A/G/ EFGD |[M:2/4] E F/E/ D2 |[M:3/4] z2 z D BF | %10
w: neu- ge- bo- re- ne Kö- nig * sei.|Sie wol- len Weih- rauch, Myr- rhen und|Gold dem Kin- de _ spen- * den zum|Op- fer- * sold.|Und hell er-|
w: new- born Sav- iour of earth may * be?|With gold an myrrh and in- cense so|rare they seek to _ wor- * ship the|in- fant _ there.|How bright- ly|
 AG B,C E>D |[M:4/4] D2 z D GA BA/G/ | Gc G2 z GBc | dB/A/ G F/G/ EBBA | GA B ^A/B/ d ^c/B/ =A2 | %15
w: glän- * zet des Ster- nes|Schein; zum Stal- le ge- hen die|Kön'- ge ein; das Knäb- lein|schau- en sie won- nig- * lich, an- be- tend|nei- * gen die * Kön'- ge _ sich;|
w: shines * now the light on|high as to the man- ger the|kings draw nigh. They look with|rap- ture up- on the _ boy, they bend be-|fore _ him o‘er- * come with _ joy,|
 z A^GA cA BA/=G/ | cG B A/G/ EFGD | E F/E/ D3 z z2 | z2 z D B>c B2 | GFEG F4 | z D c>A ed BG | %21
w: sie brin- gen Weih- rauch, Myr- rhen und|Gold zum Op- fer * dar _ _ dem|Knäb- lein _ hold.|O Men- schen- kind!|hal- te treu- lich Schritt!|Die Kön'- ge wan- * dern, *|
w: with gold and myrrh and in- cense so|rare they all a- * dore _ _ the|in- fant _ there.|O child of man!|bend thou al- so low!|The kings went thith- * er, _|
 z GGE B4 |[Q:1/4=66]"^etwas bewegter werdend\npoco a poco più mosso" z cBG EF/E/ ^DE | %23
w: o wan- dre mit!|Der Stern der Lie- be, der Gna- de|
w: o with them go!|The star of mer- cy, com- pas- sion‘s|
 Fc BA/G/ EF/E/ ^DE | FFcB A G/E/[Q:1/4=52]"^rit." =Dd/c/ |[Q:1/4=60]"^a tempo" B2 BA/G/ dB GF | %26
w: Stern, er- hel- le dein Ziel, so du suchst den|Herrn, und feh- len Weih- rauch, * Myr- rhen und|Gold, schen- ke dein Herz * dem *|
w: star, shall point thee the path- way to Him a-|far, and fail thee gold and _ in- cense so|rare, give then thy hart * to _|
 E F/G/ D2 z4 | E2 D>D !fermata!B4 |] %28
w: Knäb- lein * hold!|Schenk' ihm dein Herz!|
w: Je- sus * there!|Give him thy heart!|
V:2
 z z2 |[M:3/4] z2 z2 [CEG]2 |[M:4/4] [DGBd]2 [B,FB]2 [B,EG]2 [DGd]2 | [EGce]2 [EGce]2 [DGBd]4 | %4
 z2 [Gd]2 [EBe]2 [ABf]2 | [GBg]2 [FBf]2 e2 e2 | d4 z2 B2 | [EGce]2 [DGBd]2 [Cc]2 [DGB]2 | %8
[M:2/4] [EA]2 A2 |[M:3/4] [B,G]4 z2 | z2 z2 [CEG]2 |[M:4/4] [DGBd]2 [B,FB]2 [B,EG]2 [DGd]2 | %12
 [EGce]2 [EGce]2 [DGBd]4 | z2 [Gd]2 [EBe]2 [ABf]2 | [GBg]2 [FBf]2 e2 e2 | [Fd]4 z2 [GB]2 | %16
 [EGce]2 [DGBd]2 [Cc]2 [GB]2 | A2 A2 G4 | (!>!d4 B4) | B4- B4 | (d4 B4) | B4- B4 | %22
 [^DFc]2 [EGB]2 [EA]2 B2 | [^DFc]2 [EGB]2 [EA]2 B2 | [^DFc]2 cB x2 GF | %25
 [B,G][B,G] [B,^CG][B,CG] [G,DG] [Gdg]2 [Gdf]- | [Gdf] [Gce]2!>(! [GBd]2 [DFc]2 [DGB]!>)! | %27
 [EA]2 A2 !fermata![B,G]4 |] %28
V:3
 z z2 |[M:3/4] z2 z2!p! G,2 |[M:4/4] [G,,G,]2 [D,,D,]2 [E,,E,]2 [B,,,B,,]2 | %3
 [C,,C,]2 [C,,C,]2 [G,,G,]4 | z2!p! [B,D]2!<(! [G,B,]2 [F,B,^D]2!<)! | %5
 [E,B,E]2 [D,B,=D]2!>(! [G,D]2 [A,^C]2!>)! | [D,D]4 z2!p! [G,D]2 | %7
 [C,C]2 [G,,G,]2 [A,,A,][D,,D,] G,2 |[M:2/4] G,2 F,2 |[M:3/4] G,4 z2 | z2 z2!p! G,2 | %11
[M:4/4] [G,,G,]2 [D,,D,]2 [E,,E,]2 [B,,,B,,]2 | [C,,C,]2 [C,,C,]2 [G,,G,]4 | %13
 z2!p! [B,D]2!<(! [G,B,]2 [F,B,^D]2!<)! | [E,B,E]2 [D,B,=D]2 [G,D]2 [A,^C]2 | [D,D]4 z2!p! [G,D]2 | %16
 [C,C]2 [G,,G,]2 ([A,,A,][D,,D,] [G,,G,]B,,) | G,2 F,2 G,4 | [D,,D,]4!<(! [G,,G,]4!<)! | %19
!>(! [E,,E,]4!>)! [B,,,B,,]4 | ([A,,,A,,]2 [D,,D,]2 [G,,,G,,]4) | %21
!<(! [E,,E,]4!<)!!>(! [B,,,B,,]4!>)! |!p! [A,,,A,,]2 [G,,,G,,]2 [C,,C,]2 [B,,,B,,]2 | %23
 [A,,,A,,]2 [G,,,G,,]2 [C,,C,]2 [B,,,B,,]2 | [A,,,A,,]2 [G,,,G,,]2 [C,,C,]2 [D,,D,]2 | %25
 D,G,!<(! [E,,E,][E,,E,]!<)!!f! [B,,,B,,]2 [B,,B,]2 | [C,C]2 [G,,G,]2 [A,,A,]2 [B,,B,]2 | %27
!p! CG, [D,F,]2 !fermata![G,,D,G,]4 |] %28
V:4
 x3 |[M:3/4] x6 |[M:4/4] x8 | x8 | x8 | x4 B2 AG | F4 x2 G2 | x4 GF x2 |[M:2/4] x2 DC |[M:3/4] x6 | %10
 x6 |[M:4/4] x8 | x8 | x8 | x4 B2 AG | x8 | x4 GF D2 | E2 DC B,4 | %18
 [CFA][CFA][CFA][CFA] [B,DG][B,DG][B,DG][B,DG] | [B,G][B,G][^CG][CG] [DF][DF][DF][DF] | %20
 [CFA][CFA][CFA][CFA] [B,G][B,G][B,G][B,G] | [B,G][B,G][^CG][CG] [^DF][DF][DF][DF] | x6 [FA][EG] | %23
 x6 [FA][EG] | x2 [EG]2 [EG]2 =D2 | x8 | x8 | x2 DC x4 |] %28
V:5
 x3 |[M:3/4] x6 |[M:4/4] x8 | x8 | x8 | x8 | x8 | x6 G,,B,, |[M:2/4] C,2 D,2 |[M:3/4] G,,4 x2 | %10
 x6 |[M:4/4] x8 | x8 | x8 | x8 | x8 | x8 | C,2 D,2 G,,4 | x8 | x8 | x8 | x8 | x8 | x8 | x8 | %25
 G,,2 x6 | x8 | C,2 x6 |] %28
V:6
 x3 |[M:3/4] x6 |[M:4/4] x8 | x8 | x8 | x8 | x8 | x8 |[M:2/4] x4 |[M:3/4] x6 | x6 |[M:4/4] x8 | %12
 x8 | x8 | x8 | x8 | x8 | x8 | x8 | x8 | x8 | x8 | x8 | x8 | x4 A4 | x8 | x8 | x8 |] %28

